X:1
T:Title
%%score 1 2 3
L:1/8
M:4/2
K:F
V:1 treble nm="Part_1"
V:2 bass nm="Part_2"
V:3 bass nm="Part_3"
V:1
 z16 | A8 d8- | d4 ^c4 d6 =c2 | B4 B4 A8 | F8 G4 G4 | A6 G2 ^F4 G4- | G4 ^F4 G8- | G8 z8 | D8 G8- | %9
 G4 ^F4 G8- | G4 G4 B6 AG | B6 cd G4 A4- | A4 B4 B4 A4 | B8 z2 G3 G G2 | c6 B2 A2 A4 Bc | %15
 d4 d4 z2 G4 cA | G8 F8 | z4 c4 B6 _E2 | D>EF<G D4 C8 | z4 d4 c6 F2 | E>FG<A E4 F8 | z4 B4 A6 F2 | %22
 c>de<f c4 B8 | z16 | z4 d6 AA A4- | A4 E4 c3 c c4 | z4 d8 c2 B2 | A2 A2 F2 G2 A4 A4 | %28
 z4 A2 B2 c8- | c4 E2 F2 GFE/F/G/A/ G4 | F8 A2 B2 c4- | c4 c2 AF E>AG>F E4 |[M:6/2] F16 F8 | %33
 B12 A4 G8 | c12 B4 A8 | d12 c4 B8 | z24 |[M:4/2] z2 cB A2 dc B2 _ed c4 | z4 f8 _e4 | d8 c8 | %40
 z4 G8 F4 | E8 D8 | z16 | z16 | z4 G2 A2 B2 B2 B4 | B6 cd A8 | G8 z4 A2 B2 | c2 c2 c4 A6 Bc | %48
 G8 F4 z2 F2 | A4 GGGA BBAB ccBc | d6 B2 F>GA>G F>EF>G | A2 G4 ^F2 G8 | z16 | z16 | z16 | z16 | %56
 z16 | z16 |[M:6/2] z24 | z24 | z24 | z24 | d16 =B8 | c16 A8 | B16 G8 | A16 A8 | %66
[M:4/2] z4 A4 d3 _e c3 d | =B4 c4 c4 B4 | c8 z2 d4 AF | G8 F8 | z4 d4 A>BA>(B c4- | c4) B4 A8 | %72
 G16 |] %73
V:2
 D,12 G,4- | G,4 ^F,4 G,6 =F,2 | _E,6 E,2 D,8 | G,,8 D,8 | z4 D,4 _E,6 D,2 | C,4 C,2 C,2 D,8- | %6
 D,8 G,,8 | z4 G,,8 C,4- | C,4 =B,,4 C,6 _B,,2 | A,,4 A,,4 G,,8 | _E,8 D,6 D,2 | G,8 _E,4 D,4 | %12
 F,4 _E,4 F,8 | B,,2 G,,3 G,, G,,2 C,6 B,,2 | A,,2 A,,3 A,, A,,2 D,6 C,2 | B,,2 B,,4 D,G,, C,8- | %16
 C,8 F,,4 F,4- | F,4 A,,4 G,,8- | G,,8 C,8 | G,6 =B,,2 A,,8- | A,,8 D,8 | _E,6 G,,2 F,,8- | %22
 F,,8 B,,8 | z16 | z8 z4 D,4- | D,2 A,,A,, A,,8 A,,4 | B,,12 ^F,,2 G,,2 | D,4 D,4 z4 D,2 E,2 | %28
 F,12 A,,2 B,,2 | C,4 =B,,4 C,8 | F,,8 z4 F,2 G,2 | A,6 F,D, A,,8 |[M:6/2] D,24 | z8 G,,8 C,8- | %34
 C,4 B,,4 A,,8 D,8- | D,4 C,4 B,,8 _E,8- | E,4 D,4 C,16 |[M:4/2] z4 F,E, D,2 G,F, _E,2 A,G, F,2 | %38
 B,,4 A,,4 G,,8- | G,,8 C,8 | C,4 B,,4 A,,8- | A,,8 D,8 | z16 | z16 | z16 | z16 | z16 | z16 | z16 | %49
 z16 | z16 | z16 | G,,6 B,,D, F,4 F,4 | C,6 E,G, D,4 D,4 | B,,6 B,,2 B,,C,D,E, F,2 F,,2 | %55
 C,4 G,,2 A,,2 B,,2 B,,2 A,,2 B,,2 | C,2 C,2 B,,2 C,2 D,4 _E,D,E,F, | D,8 G,,8 |[M:6/2] G,16 E,8 | %59
 F,16 D,8 | _E,16 C,8 | D,16 D,8 | G,,16 G,8 | C,16 F,8 | B,,16 C,8 | F,,16 F,,8 | %66
[M:4/2] F,8 B,,4 A,,4 | G,,16 | C,6 C,2 G,,4 D,4 | C,8 F,,8 | z2 F,2 B,,C,B,,C, D,4 A,,4 | D,16 | %72
 G,,16 |] %73
V:3
 D,12 G,4- | G,4 ^F,4 G,6 =F,2 | _E,8 D,8 | G,,8 D,8- | D,4 D,4 _E,6 D,2 | C,4 C,4 D,8- | %6
 D,8 G,,8 | G,,12 C,4- | C,4 =B,,4 C,6 _B,,2 | A,,8 G,,8 | _E,8 D,6 D,2 | G,8 _E,4 D,4 | %12
 F,4 _E,4 F,8 | B,,2 G,,4 G,,2 C,6 B,,2 | A,,2 A,,4 A,,2 D,6 C,2 | B,,2 B,,4 D,G,, C,8- | %16
 C,8 F,,4 F,4- | F,4 A,,4 G,,8 | G,,8 C,8 | G,6 =B,,2 A,,8- | A,,8 D,8 | _E,6 G,,2 F,,8- | %22
 F,,8 B,,8 | D,8 A,,4 F,,4 | G,,8 D,8 | D,2 A,,2 A,,4 A,,8 | B,,12 ^F,,2 G,,2 | D,8 D,6 E,2 | %28
 F,12 A,,2 B,,2 | C,4 =B,,4 C,8 | F,,8 F,,4 F,2 G,2 | A,6 F,D, A,,8 |[M:6/2] D,24 | %33
 G,,8 G,,8 C,8- | C,4 B,,4 A,,8 D,8- | D,4 C,4 B,,8 _E,8- | E,4 D,4 C,8 C,8 | %37
[M:4/2] F,,4 F,E, D,2 G,F, _E,2 A,G, F,2 | B,,4 A,,4 G,,8- | G,,8 C,8 | C,4 B,,4 A,,8- | A,,8 D,8 | %42
 D,4 A,,2 B,,2 C,2 C,2 C,4 | C,4 E,2 F,2 G,2 G,2 G,4 | G,,8 G,,8- | G,,8 D,8 | G,,8 D,2 E,2 F,4 | %47
 F,,16 | C,8 F,,8 | F,,4 C,C,C,A,, G,,G,,F,,G,, A,,A,,G,,A,, | B,,4 G,,4 D,8- | D,8 G,,8 | %52
 G,,6 B,,D, F,4 F,4 | C,6 E,G, D,8 | B,,6 B,,2 B,,4 F,4 | C,4 G,,2 A,,2 B,,2 B,,2 A,,2 B,,2 | %56
 C,2 C,2 B,,2 C,2 D,4 _E,4 | D,8 G,,8 |[M:6/2] G,16 E,8 | F,16 D,8 | _E,16 C,8 | D,16 D,8 | %62
 G,,16 G,8 | C,16 F,8 | B,,16 C,8 | F,,16 F,,8 |[M:4/2] F,8 B,,4 A,,4 | G,,16 | C,8 G,,4 D,4 | %69
 C,8 F,,8 | F,4 B,,4 D,4 A,,4 | D,16 | G,,16 |] %73

